configs/network-icons/etc-mainnet-short.svg

<svg width="30" height="30" viewBox="0 0 30 30" fill="none" xmlns="http://www.w3.org/2000/svg">
<path d="M6.32654 13.4422L15.1701 9.71429L23.7415 13.5374L15.1565 0L6.32654 13.4422ZM6.35375 17.5782L15.1837 22.6939L24.1905 17.5782L15.2653 30L6.35375 17.5782Z" fill="#4AD7A7"/>
<path d="M15.2109 11.5374L6 15.4149L15.2109 20.5305L24.1633 15.5237L15.2109 11.5374Z" fill="#4AD7A7"/>
</svg>

<svg xmlns="http://www.w3.org/2000/svg" fill="none" viewBox="0 0 30 30">
  <path fill="#4AD7A7" d="m6.327 13.442 8.843-3.728 8.571 3.823L15.156 0l-8.83 13.442Zm.027 4.136 8.83 5.116 9.007-5.116L15.264 30l-8.91-12.422Z"/>
  <path fill="#4AD7A7" d="M15.21 11.537 6 15.415l9.21 5.116 8.953-5.007-8.952-3.987Z"/>
</svg>
